X: 24392
T: Lovely Nancy
R: jig
M: 6/8
K: Gmajor
dBd g3|efg dBG|BGG dBG|FGA ABc|
dBd g3|efg dBG|cde dBG|1 FEF G2 B:|2 FEF G2 A||
BGG dGG|eGG dGG|BGG dBG|FGA ABc|
BGG dGG|eGG d2 c|BAG AGA|1 BGG G2 A:|2 BGG G3||

